X: 3
T: Walnut Gap
O:from playing of Snake Chapman
M:C|
L:1/8
K:G
DE |\
"G"GABd g2g2 | "C"(3fgf ec"Am7"A3 A- | "D"ABde fd ed | fd ed "G"BG2D |
"G"GABd g2g2 | "C"(3fgf ec"Am7"A3 A- | "D"ABde fd ed- |1 dBAF "G"G2 :|2 dBAF "G"G3 A |]
|:\
"G"B3 B- BAGD | "C"Ec2E c3 D- | "D"DEFG A2 (A/B/c/d/) | e2 d4 B2 |
"G"e2 dB- BAGD | "C"Ec2E c3 D- | "D"DFAF dFAF | "G"G- [G3B,3] [G4B,4] :|
%%text Alternate B part
|:\
"G"G,B,DG BAGF | "C"ECEG c3 D- | "D"DEFG A2 (A/B/c/d/) | e2 d4 B2 |
"G"e2 dB- BAGD | "C"Ec2E c3 D- | "D"DFAF dFAF | "G"G- [G3B,3] [G4B,4] :|

